X:1
T:Resignation
T:Resignation
T:Adam Geibel
T:Emma A. Tiffany, 1898
T:Public Domain Courtesy of the Cyber Hymnal™
T:Public Domain Courtesy of the Cyber Hymnal™
C:Adam Geibel
Z:Public Domain
Z:Courtesy of the Cyber Hymnal™
%%score ( 1 2 ) ( 3 4 )
L:1/8
Q:1/4=80
M:6/8
K:Ab
V:1 treble 
V:2 treble 
V:3 bass 
V:4 bass 
V:1
 ([CE]/[CE]/) | [CA]2 [CA]/[CA]/ [CA]>[DB][Ec] | [DF]<[CE]- [CE]3 [EA] | [EB]<[EB][EB] | %4
w: 1.~I *|stood face to face with a|sor- row, * That|threat- ened my|
w: 2.~I *|rode o’er a temp- est rocked|bil- low, * Which|threat- ened my|
w: 3.~O’er~my *|soul death’s sha- dows were creep-|ing, That * threat-|ened my faith|
 [EB]>[Ec][Ed] | [Ec]4 z (E/E/) | [Ec]2 [Ec]/[Ec]/ [Ae]>[Ec][EA] | [FA]<[DF]- [DF]3 [DF] | %8
w: bark to o’er-|whelm, But *|peace float- ed in in the|mor- row, * My|
w: life to o’er-|whelm, But *|I sweet- ly slept on my|pil- low, * My|
w: to o’er- whelm,|But the *|an- gels a vi- gil were|keep- ing, * My|
 [CE]>[CE][CE] [DE]>[DF][DG] | [CA]4 z ||"^Refrain" [CA] | [Ec]>[DB][CA] [Ec]>[DB][CA] | %12
w: Fa- ther was guid- ing the|helm.|My|Fa- ther was guid- ing the|
w: Fa- ther was guid- ing the|helm.|My|Fa- ther was guid- ing the|
w: Fa- ther was guid- ing the|helm.|My|Fa- ther was guid- ing the|
 e3- [Ae]2 [CA] | [Ec]>[DB][CA] [Ec]>[Ed][Ee] | [EB]4 z (E/E/) | [Ec]2 [Ec]/[Ec]/ [Ae]>[Ec][FA] | %16
w: helm, My Fa-|* ther was guid- ing the|helm, But *|peace float- ed in in the|
w: helm, My Fa-|* ther was guid- ing the|helm, But *|I sweet- ly slept on my|
w: helm, My Fa-|* ther was guid- ing the|helm, But~the *|an- gels a vi- gil were|
 [FA]<[DF]- [DF]3 [DF] | [CE]>[CE][CE] [DE]>[DF][DG] | [CA]4 z |] %19
w: mor- row, * My|Fa- ther was guid- ing the|helm.|
w: pil- low, * My|Fa- ther was guid- ing the|helm.|
w: keep- ing, * My|Fa- ther was guid- ing the|helm.|
V:2
 x | x6 | x6 | x3 | x3 | x5 E/E/ | x6 | x6 | x6 | x5 || x | x6 | E2 E x3 | x6 | x5 E/E/ | x6 | x6 | %17
 x6 | x5 |] %19
V:3
 ([A,,A,]/[A,,A,]/) | [A,,A,]2 [A,,A,]/[A,,A,]/ [A,,A,]>[A,,A,][A,,A,] | %2
 [A,,A,]<[A,,A,]- [A,,A,]3 [C,A,] | [E,G,]<[E,G,][E,G,] | [E,G,]>[E,A,][E,B,] | [A,,A,]4 z E,/E,/ | %6
 [A,,A,]2 A,/A,/ [A,C]>[A,,A,][C,A,] | [D,A,]<[D,A,]- [D,A,]3 [D,A,] | %8
 [E,A,]>[E,A,][E,A,] [E,G,]>[E,A,][E,B,] | [A,,A,]4 z || [A,,E,] | %11
 [A,,A,]>[A,,A,][A,,A,] [A,,A,]>[A,,A,][A,,A,] | ([A,C]2 [A,C] [A,C]2) [A,,E,] | %13
 [A,,A,]>[A,,A,][A,,A,] [A,,A,]>[A,,A,][A,,A,] | [E,G,]4 z E,/E,/ | %15
 [A,,A,]2 A,/A,/ [A,C]>[A,,A,][C,A,] | [D,A,]<[D,A,]- [D,A,]3 [D,A,] | %17
 [E,A,]>[E,A,][E,A,] [E,G,]>[E,A,][E,B,] | [A,,A,]4 z |] %19
V:4
 x | x6 | x6 | x3 | x3 | x5 (E,/E,/) | x2 A,/A,/ x3 | x6 | x6 | x5 || x | x6 | x6 | x6 | %14
 x5 (E,/E,/) | x2 A,/A,/ x3 | x6 | x6 | x5 |] %19

